X: 43008
T: Willows, The
R: waltz
M: 3/4
K: Gmajor
GA|:B3A Bd|G3G gf|e3d eg|d3G Bd|
[1e3d eg|d2 B2 (3GAB|c4 Bc|A3d dc:|
[2e3d eg|d2 B2 GA|B4 AB/A/|G3d gf||
|:d4 gf|d4 gd|de/d/ cB cd|A3G gf|
d4 gf|d4 BG|cB cd eg|a3g gf|
c4 gf|c4 gd|de/d/ cB cd|A4 GA|
B3A Bd|B3A Bd|B2 A4|A4 GA||

